app/dist/common/images/nacco-industries.svg

<svg height="18" viewBox="0 0 18 18" width="18" xmlns="http://www.w3.org/2000/svg"><path d="m0 0h18v18h-18z" fill="#0b1c3a"/><path d="m9.5 9.51-.84-1.3 1.24-3.21h1.43zm1.14 1.74-.84-1.3 1.92-4.95h1.43l-2.5 6.25zm-3.64-4.95-.84-1.24-.53 1.33-.05.1-2.58 6.51h1.42l2.58-6.69h-.01zm.28.53.84 1.3-1.88 4.87h-1.42l2.45-6.17zm1.98 3.04-.84-1.3-1.77 4.43h1.43l1.17-3.13zm5.74-4.87-3.22 8-.9-1.27 2.7-6.73z" fill="#365ba9"/></svg>

<!-- by TradingView --><svg width="18" height="18" viewBox="0 0 18 18" xmlns="http://www.w3.org/2000/svg"><path fill="#0B1C3A" d="M0 0h18v18H0z"/><path d="m9.5 9.51-.84-1.3L9.9 5h1.43L9.5 9.51Zm1.14 1.74-.84-1.3L11.72 5h1.43l-2.5 6.25ZM7 6.3l-.84-1.24-.53 1.33-.05.1L3 13h1.42L7 6.31h-.01Zm.28.53.84 1.3L6.24 13H4.82l2.45-6.17Zm1.98 3.04-.84-1.3L6.65 13h1.43l1.17-3.13ZM15 5l-3.22 8-.9-1.27L13.58 5H15Z" fill="#365BA9"/></svg>
